X: 10623
T: The LINKS OF KILLAROW
P: "Strathspey."
%R: strathspey
B: W. Hamilton "Universal Tune-Book" Vol. 1 Glasgow 1844 p.62 #3
S: http://imslp.org/wiki/Hamilton's_Universal_Tune-Book_(Various)
Z: 2016 John Chambers <jc:trillian.mit.edu>
M: C
L: 1/16
K: C
% - - - - - - - - - - - - - - - - - - - - - - - - -
a2 |\
g2e2c2g2 efge d3f | e3cg3c e2d2d2a2 |\
g2e2c2g2 e3gd3B | c2A2G2E2 | CCC2 C2 :|
|: F2 |\
E3Gc3G A3Gc3G | E3Gc3G A2D2D2F2 |\
E3Gc3G A2G2A2a2 | g2f2e2d2 ccc2 c2 :|
% - - - - - - - - - - - - - - - - - - - - - - - - -

%%sep 1 1 500
%%sep 1 1 500

